apex/img/why-choose-icon-1.svg

<svg width="36" height="37" viewBox="0 0 36 37" fill="none" xmlns="http://www.w3.org/2000/svg">
<g clip-path="url(#clip0)">
<path d="M14.6957 15.4287V8.41331C14.6957 6.54076 16.178 5.01726 18 5.01726C19.822 5.01726 21.3043 6.54076 21.3043 8.41331V11.3596H26.1859V8.41331C26.1859 3.77422 22.5137 0 18 0C13.4863 0 9.81409 3.77422 9.81409 8.41331V15.4287H14.6957Z" fill="#2E2E2E"/>
<path fill-rule="evenodd" clip-rule="evenodd" d="M4.67035 37V17.5967H31.3296V37H4.67035ZM19.8515 25.4203L18 21.6585L16.1485 25.4203L12.0083 26.0235L15.0042 28.9517L14.297 33.0862L18 31.1341L21.7031 33.0862L20.9958 28.9517L23.9917 26.0235L19.8515 25.4203Z" fill="#2E2E2E"/>
</g>
<defs>
<clipPath id="clip0">
<rect width="36" height="37" fill="white"/>
</clipPath>
</defs>
</svg>

<svg width="36" height="37" fill="none" xmlns="http://www.w3.org/2000/svg"><g clip-path="url(#clip0)" fill="#2E2E2E"><path d="M14.696 15.429V8.413c0-1.872 1.482-3.396 3.304-3.396 1.822 0 3.304 1.524 3.304 3.396v2.947h4.882V8.413C26.186 3.774 22.514 0 18 0c-4.514 0-8.186 3.774-8.186 8.413v7.016h4.882z"/><path fill-rule="evenodd" clip-rule="evenodd" d="M4.67 37V17.597h26.66V37H4.67zm15.182-11.58L18 21.658l-1.852 3.762-4.14.603 2.996 2.929-.707 4.134L18 31.134l3.703 1.952-.707-4.134 2.996-2.929-4.14-.603z"/></g><defs><clipPath id="clip0"><path fill="#fff" d="M0 0h36v37H0z"/></clipPath></defs></svg>
